X:1
T: Finlay Stewart Skinner
C:Muriel A Johnstone
R:Strathspey
%Q: 128
K:D
M:4/4
L:1/16
|:A2Bc d3D FA3 A4|E3F G3A B3A Bcd2|A2Bc d3D FA3 A4|Bd3 A3G FD3 D3B|
A2Bc d3D FA3 A4|E3F G3A B3A Bcd2|A2Bc d3D FA3 A4|Bd3 A3G FD3 D4|
((3agf) e3d Be3 e4|((3dcB) A3F ED3 FE3|a2gf e3d Be3 e3c|dB3 A3G FD3 D4|
a2gf e3d Be3 e4|d2cB A3F ED3 FE3|((3DEF) ((3GAB) ((3ABc) ((3def) |gb3 a3g fd3 d4:|
